packages/ckeditor5-icons/theme/icons/web.svg

<svg viewBox="0 0 15 15" xmlns="http://www.w3.org/2000/svg">
<path fill-rule="evenodd" clip-rule="evenodd" d="M14.2803 7.30005C14.2803 11.166 11.1463 14.3 7.28027 14.3C3.41428 14.3 0.280273 11.166 0.280273 7.30005C0.280273 3.43406 3.41428 0.300049 7.28027 0.300049C11.1463 0.300049 14.2803 3.43406 14.2803 7.30005ZM7.51712 13.2454C7.43855 13.2485 7.35959 13.25 7.28027 13.25C7.20095 13.25 7.122 13.2485 7.04343 13.2454C6.45692 12.324 5.99925 11.1935 5.72983 9.92505H8.83072C8.5613 11.1935 8.10362 12.324 7.51712 13.2454ZM8.78729 13.0575C9.25706 12.1284 9.61598 11.07 9.83511 9.92505H12.6214C11.867 11.4572 10.4727 12.6176 8.78729 13.0575ZM13.0196 8.87505C13.1569 8.3734 13.2303 7.84529 13.2303 7.30005C13.2303 6.75481 13.1569 6.2267 13.0196 5.72505H9.9935C10.0506 6.23756 10.0803 6.76368 10.0803 7.30005C10.0803 7.83641 10.0506 8.36254 9.9935 8.87505H13.0196ZM12.6214 4.67505C11.867 3.1429 10.4727 1.98249 8.78729 1.54256C9.25706 2.47167 9.61598 3.53007 9.83511 4.67505H12.6214ZM7.51711 1.35468C8.10362 2.27612 8.5613 3.40661 8.83072 4.67505H5.72983C5.99925 3.40661 6.45692 2.27612 7.04343 1.35468C7.122 1.3516 7.20095 1.35005 7.28027 1.35005C7.35959 1.35005 7.43855 1.3516 7.51711 1.35468ZM5.77326 1.54256C5.30349 2.47167 4.94457 3.53007 4.72544 4.67505H1.93914C2.69357 3.1429 4.08785 1.98249 5.77326 1.54256ZM1.54096 5.72505C1.40361 6.2267 1.33027 6.75481 1.33027 7.30005C1.33027 7.84529 1.40361 8.3734 1.54096 8.87505H4.56705C4.50996 8.36254 4.48027 7.83641 4.48027 7.30005C4.48027 6.76368 4.50996 6.23756 4.56705 5.72505H1.54096ZM1.93914 9.92505C2.69357 11.4572 4.08785 12.6176 5.77326 13.0575C5.30349 12.1284 4.94457 11.07 4.72544 9.92505H1.93914ZM9.00585 8.87505H5.5547C5.49225 8.36597 5.45938 7.83966 5.45938 7.30005C5.45938 6.76044 5.49225 6.23413 5.5547 5.72505H9.00585C9.0683 6.23413 9.10117 6.76044 9.10117 7.30005C9.10117 7.83966 9.0683 8.36597 9.00585 8.87505Z"/>
</svg>

<svg xmlns="http://www.w3.org/2000/svg" viewBox="0 0 15 15"><path fill-rule="evenodd" d="M14.28 7.3a7 7 0 1 1-14 0 7 7 0 0 1 14 0m-6.763 5.945a6 6 0 0 1-.474 0C6.457 12.324 6 11.194 5.73 9.925h3.1c-.269 1.268-.726 2.399-1.313 3.32m1.27-.187c.47-.93.829-1.988 1.048-3.133h2.786a5.96 5.96 0 0 1-3.834 3.132m4.233-4.183a5.96 5.96 0 0 0 0-3.15H9.993a14.2 14.2 0 0 1 0 3.15zm-.399-4.2a5.96 5.96 0 0 0-3.834-3.132c.47.929.829 1.987 1.048 3.132zm-5.104-3.32c.587.921 1.044 2.052 1.314 3.32H5.73c.27-1.268.727-2.399 1.313-3.32a6 6 0 0 1 .474 0m-1.744.188c-.47.929-.828 1.987-1.048 3.132H1.94a5.96 5.96 0 0 1 3.834-3.132M1.541 5.725a6 6 0 0 0-.21 1.575c0 .545.073 1.073.21 1.575h3.026a14.2 14.2 0 0 1 0-3.15zm.398 4.2a5.96 5.96 0 0 0 3.834 3.132c-.47-.929-.828-1.987-1.048-3.132zm7.067-1.05H5.555a13 13 0 0 1 0-3.15h3.45a13 13 0 0 1 0 3.15" clip-rule="evenodd"/></svg>
